packages/web/src/assets/img/nextstrain_clades.svg

<svg xmlns="http://www.w3.org/2000/svg" class="d3-component" style="font-family: sans-serif; font-size: 1.25rem;" viewBox="-70 0 830 550" width="1000" height="600"><path fill="none" stroke="#ccc" stroke-width="3px" d="M 180 328.2258064516129
              C 90 328.2258064516129,
                90 345.9677419354839,
                0 345.9677419354839"></path><path fill="none" stroke="#ccc" stroke-width="3px" d="M 180 363.7096774193548
              C 90 363.7096774193548,
                90 345.9677419354839,
                0 345.9677419354839"></path><path fill="none" stroke="#ccc" stroke-width="3px" d="M 360 141.93548387096774
              C 270 141.93548387096774,
                270 328.2258064516129,
                180 328.2258064516129"></path><path fill="none" stroke="#ccc" stroke-width="3px" d="M 360 372.5806451612903
              C 270 372.5806451612903,
                270 328.2258064516129,
                180 328.2258064516129"></path><path fill="none" stroke="#ccc" stroke-width="3px" d="M 360 408.06451612903226
              C 270 408.06451612903226,
                270 328.2258064516129,
                180 328.2258064516129"></path><path fill="none" stroke="#ccc" stroke-width="3px" d="M 360 443.5483870967742
              C 270 443.5483870967742,
                270 328.2258064516129,
                180 328.2258064516129"></path><path fill="none" stroke="#ccc" stroke-width="3px" d="M 360 479.03225806451616
              C 270 479.03225806451616,
                270 328.2258064516129,
                180 328.2258064516129"></path><path fill="none" stroke="#ccc" stroke-width="3px" d="M 360 514.516129032258
              C 270 514.516129032258,
                270 328.2258064516129,
                180 328.2258064516129"></path><path fill="none" stroke="#ccc" stroke-width="3px" d="M 540 35.483870967741936
              C 450 35.483870967741936,
                450 141.93548387096774,
                360 141.93548387096774"></path><path fill="none" stroke="#ccc" stroke-width="3px" d="M 540 70.96774193548387
              C 450 70.96774193548387,
                450 141.93548387096774,
                360 141.93548387096774"></path><path fill="none" stroke="#ccc" stroke-width="3px" d="M 540 106.45161290322581
              C 450 106.45161290322581,
                450 141.93548387096774,
                360 141.93548387096774"></path><path fill="none" stroke="#ccc" stroke-width="3px" d="M 540 141.93548387096774
              C 450 141.93548387096774,
                450 141.93548387096774,
                360 141.93548387096774"></path><path fill="none" stroke="#ccc" stroke-width="3px" d="M 540 177.4193548387097
              C 450 177.4193548387097,
                450 141.93548387096774,
                360 141.93548387096774"></path><path fill="none" stroke="#ccc" stroke-width="3px" d="M 540 212.90322580645162
              C 450 212.90322580645162,
                450 141.93548387096774,
                360 141.93548387096774"></path><path fill="none" stroke="#ccc" stroke-width="3px" d="M 540 248.38709677419354
              C 450 248.38709677419354,
                450 141.93548387096774,
                360 141.93548387096774"></path><path fill="none" stroke="#ccc" stroke-width="3px" d="M 540 319.35483870967744
              C 450 319.35483870967744,
                450 372.5806451612903,
                360 372.5806451612903"></path><path fill="none" stroke="#ccc" stroke-width="3px" d="M 540 354.8387096774194
              C 450 354.8387096774194,
                450 372.5806451612903,
                360 372.5806451612903"></path><path fill="none" stroke="#ccc" stroke-width="3px" d="M 540 390.3225806451613
              C 450 390.3225806451613,
                450 372.5806451612903,
                360 372.5806451612903"></path><path fill="none" stroke="#ccc" stroke-width="3px" d="M 540 425.80645161290323
              C 450 425.80645161290323,
                450 372.5806451612903,
                360 372.5806451612903"></path><g transform="translate(50,50)"></g><g class="node" transform="translate(0, 345.9677429199219)"><circle class="node" r="15" style="fill: rgb(70, 59, 208); stroke: rgb(61, 51, 181);" cursor="pointer"></circle><text dy=".35em" x="-20" text-anchor="end" fill="#777" font-weight="700">19A</text></g><g class="node" transform="translate(180, 328.2257995605469)"><circle class="node" r="15" style="fill: rgb(81, 151, 208); stroke: rgb(70, 131, 181);" cursor="pointer"></circle><text dy=".35em" x="-20" text-anchor="end" fill="#777" font-weight="700">20A</text></g><g class="node" transform="translate(180, 363.7096862792969)"><circle class="node" r="15" style="fill: rgb(69, 110, 222); stroke: rgb(60, 95, 193);" cursor="pointer"></circle><text dy=".35em" x="20" text-anchor="start" fill="#777" font-weight="700">19B</text></g><g class="node" transform="translate(360, 141.93548583984375)"><circle class="node" r="15" style="fill: rgb(100, 180, 175); stroke: rgb(87, 156, 152);" cursor="pointer"></circle><text dy=".35em" x="-20" text-anchor="end" fill="#777" font-weight="700">20B</text></g><g class="node" transform="translate(360, 372.5806579589844)"><circle class="node" r="15" style="fill: rgb(128, 195, 136); stroke: rgb(111, 169, 118);" cursor="pointer"></circle><text dy=".35em" x="-20" text-anchor="end" fill="#777" font-weight="700">20C</text></g><g class="node" transform="translate(360, 408.06451416015625)"><circle class="node" r="15" style="fill: rgb(198, 202, 81); stroke: rgb(171, 175, 70);" cursor="pointer"></circle><text dy=".35em" x="20" text-anchor="start" fill="#777" font-weight="700">20E (EU1)</text></g><g class="node" transform="translate(360, 443.54840087890625)"><circle class="node" r="15" style="fill: rgb(132, 151, 208); stroke: rgb(115, 131, 181);" cursor="pointer"></circle><text dy=".35em" x="20" text-anchor="start" fill="#777" font-weight="700">21A (Delta)</text></g><g class="node" transform="translate(360, 479.0322570800781)"><circle class="node" r="15" style="fill: rgb(132, 151, 140); stroke: rgb(115, 131, 121);" cursor="pointer"></circle><text dy=".35em" x="20" text-anchor="start" fill="#777" font-weight="700">21B (Kappa)</text></g><g class="node" transform="translate(360, 514.51611328125)"><circle class="node" r="15" style="fill: rgb(184, 151, 2); stroke: rgb(159, 131, 2);" cursor="pointer"></circle><text dy=".35em" x="20" text-anchor="start" fill="#777" font-weight="700">21D (Eta)</text></g><g class="node" transform="translate(540, 35.48387145996094)"><circle class="node" r="15" style="fill: rgb(236, 50, 39); stroke: rgb(205, 44, 34);" cursor="pointer"></circle><text dy=".35em" x="20" text-anchor="start" fill="#777" font-weight="700">20I (Alpha, V1)</text></g><g class="node" transform="translate(540, 70.96774291992188)"><circle class="node" r="15" style="fill: rgb(150, 68, 107); stroke: rgb(130, 59, 93);" cursor="pointer"></circle><text dy=".35em" x="20" text-anchor="start" fill="#777" font-weight="700">20J (Gamma, V3)</text></g><g class="node" transform="translate(540, 106.45161437988281)"><circle class="node" r="15" style="fill: rgb(228, 190, 68); stroke: rgb(197, 165, 59);" cursor="pointer"></circle><text dy=".35em" x="20" text-anchor="start" fill="#777" font-weight="700">20F</text></g><g class="node" transform="translate(540, 141.93548583984375)"><circle class="node" r="15" style="fill: rgb(161, 203, 103); stroke: rgb(140, 176, 89);" cursor="pointer"></circle><text dy=".35em" x="20" text-anchor="start" fill="#777" font-weight="700">20D</text></g><g class="node" transform="translate(540, 177.4193572998047)"><circle class="node" r="15" style="fill: rgb(186, 77, 38); stroke: rgb(161, 67, 33);" cursor="pointer"></circle><text dy=".35em" x="20" text-anchor="start" fill="#777" font-weight="700">21E (Theta)</text></g><g class="node" transform="translate(540, 212.90322875976562)"><circle class="node" r="15" style="fill: rgb(18, 146, 164); stroke: rgb(16, 127, 142);" cursor="pointer"></circle><text dy=".35em" x="20" text-anchor="start" fill="#777" font-weight="700">21G (Lambda)</text></g><g class="node" transform="translate(540, 248.38710021972656)"><circle class="node" r="15" style="fill: rgb(73, 146, 164); stroke: rgb(63, 127, 142);" cursor="pointer"></circle><text dy=".35em" x="20" text-anchor="start" fill="#777" font-weight="700">21H</text></g><g class="node" transform="translate(540, 319.3548278808594)"><circle class="node" r="15" style="fill: rgb(245, 111, 50); stroke: rgb(212, 96, 44);" cursor="pointer"></circle><text dy=".35em" x="20" text-anchor="start" fill="#777" font-weight="700">20H (Beta, V2)</text></g><g class="node" transform="translate(540, 354.8387145996094)"><circle class="node" r="15" style="fill: rgb(246, 161, 60); stroke: rgb(213, 140, 52);" cursor="pointer"></circle><text dy=".35em" x="20" text-anchor="start" fill="#777" font-weight="700">20G</text></g><g class="node" transform="translate(540, 390.32257080078125)"><circle class="node" r="15" style="fill: rgb(8, 178, 136); stroke: rgb(7, 155, 118);" cursor="pointer"></circle><text dy=".35em" x="20" text-anchor="start" fill="#777" font-weight="700">21C (Epsilon)</text></g><g class="node" transform="translate(540, 425.80645751953125)"><circle class="node" r="15" style="fill: rgb(59, 230, 136); stroke: rgb(51, 199, 118);" cursor="pointer"></circle><text dy=".35em" x="20" text-anchor="start" fill="#777" font-weight="700">21F (Iota)</text></g></svg>

<svg xmlns="http://www.w3.org/2000/svg" class="d3-component" viewBox="-70 0 830 550" font-family="sans-serif" font-size="1.25rem"><path fill="none" stroke="#ccc" stroke-width="3" d="M180 328.226c-90 0-90 17.742-180 17.742M180 363.71c-90 0-90-17.742-180-17.742M360 141.935c-90 0-90 186.29-180 186.29M360 372.58c-90 0-90-44.354-180-44.354M360 408.065c-90 0-90-79.84-180-79.84M360 443.548c-90 0-90-115.322-180-115.322M360 479.032c-90 0-90-150.806-180-150.806M360 514.516c-90 0-90-186.29-180-186.29M540 35.484c-90 0-90 106.451-180 106.451M540 70.968c-90 0-90 70.967-180 70.967M540 106.452c-90 0-90 35.483-180 35.483M540 141.935H360M540 177.42c-90 0-90-35.485-180-35.485M540 212.903c-90 0-90-70.968-180-70.968M540 248.387c-90 0-90-106.452-180-106.452M540 319.355c-90 0-90 53.226-180 53.226M540 354.839c-90 0-90 17.742-180 17.742M540 390.323c-90 0-90-17.742-180-17.742M540 425.806c-90 0-90-53.225-180-53.225"/><g class="node" transform="translate(0 345.968)"><circle class="node" r="15" cursor="pointer" fill="#463bd0" stroke="#3d33b5"/><text dy=".35em" x="-20" text-anchor="end" fill="#777" font-weight="700">19A</text></g><g class="node" transform="translate(180 328.226)"><circle class="node" r="15" cursor="pointer" fill="#5197d0" stroke="#4683b5"/><text dy=".35em" x="-20" text-anchor="end" fill="#777" font-weight="700">20A</text></g><g class="node" transform="translate(180 363.71)"><circle class="node" r="15" cursor="pointer" fill="#456ede" stroke="#3c5fc1"/><text dy=".35em" x="20" fill="#777" font-weight="700">19B</text></g><g class="node" transform="translate(360 141.935)"><circle class="node" r="15" cursor="pointer" fill="#64b4af" stroke="#579c98"/><text dy=".35em" x="-20" text-anchor="end" fill="#777" font-weight="700">20B</text></g><g class="node" transform="translate(360 372.58)"><circle class="node" r="15" cursor="pointer" fill="#80c388" stroke="#6fa976"/><text dy=".35em" x="-20" text-anchor="end" fill="#777" font-weight="700">20C</text></g><g class="node" transform="translate(360 408.065)"><circle class="node" r="15" cursor="pointer" fill="#c6ca51" stroke="#abaf46"/><text dy=".35em" x="20" fill="#777" font-weight="700">20E (EU1)</text></g><g class="node" transform="translate(360 443.548)"><circle class="node" r="15" cursor="pointer" fill="#8497d0" stroke="#7383b5"/><text dy=".35em" x="20" fill="#777" font-weight="700">21A (Delta)</text></g><g class="node" transform="translate(360 479.032)"><circle class="node" r="15" cursor="pointer" fill="#84978c" stroke="#738379"/><text dy=".35em" x="20" fill="#777" font-weight="700">21B (Kappa)</text></g><g class="node" transform="translate(360 514.516)"><circle class="node" r="15" cursor="pointer" fill="#b89702" stroke="#9f8302"/><text dy=".35em" x="20" fill="#777" font-weight="700">21D (Eta)</text></g><g class="node" transform="translate(540 35.484)"><circle class="node" r="15" cursor="pointer" fill="#ec3227" stroke="#cd2c22"/><text dy=".35em" x="20" fill="#777" font-weight="700">20I (Alpha, V1)</text></g><g class="node" transform="translate(540 70.968)"><circle class="node" r="15" cursor="pointer" fill="#96446b" stroke="#823b5d"/><text dy=".35em" x="20" fill="#777" font-weight="700">20J (Gamma, V3)</text></g><g class="node" transform="translate(540 106.452)"><circle class="node" r="15" cursor="pointer" fill="#e4be44" stroke="#c5a53b"/><text dy=".35em" x="20" fill="#777" font-weight="700">20F</text></g><g class="node" transform="translate(540 141.935)"><circle class="node" r="15" cursor="pointer" fill="#a1cb67" stroke="#8cb059"/><text dy=".35em" x="20" fill="#777" font-weight="700">20D</text></g><g class="node" transform="translate(540 177.42)"><circle class="node" r="15" cursor="pointer" fill="#ba4d26" stroke="#a14321"/><text dy=".35em" x="20" fill="#777" font-weight="700">21E (Theta)</text></g><g class="node" transform="translate(540 212.903)"><circle class="node" r="15" cursor="pointer" fill="#1292a4" stroke="#107f8e"/><text dy=".35em" x="20" fill="#777" font-weight="700">21G (Lambda)</text></g><g class="node" transform="translate(540 248.387)"><circle class="node" r="15" cursor="pointer" fill="#4992a4" stroke="#3f7f8e"/><text dy=".35em" x="20" fill="#777" font-weight="700">21H</text></g><g class="node" transform="translate(540 319.355)"><circle class="node" r="15" cursor="pointer" fill="#f56f32" stroke="#d4602c"/><text dy=".35em" x="20" fill="#777" font-weight="700">20H (Beta, V2)</text></g><g class="node" transform="translate(540 354.839)"><circle class="node" r="15" cursor="pointer" fill="#f6a13c" stroke="#d58c34"/><text dy=".35em" x="20" fill="#777" font-weight="700">20G</text></g><g class="node" transform="translate(540 390.323)"><circle class="node" r="15" cursor="pointer" fill="#08b288" stroke="#079b76"/><text dy=".35em" x="20" fill="#777" font-weight="700">21C (Epsilon)</text></g><g class="node" transform="translate(540 425.806)"><circle class="node" r="15" cursor="pointer" fill="#3be688" stroke="#33c776"/><text dy=".35em" x="20" fill="#777" font-weight="700">21F (Iota)</text></g></svg>
